X: 601
T: Vu bist du geveyn far prohibishn
N: From transcription by Glenn Dickson
Z: 2003 John Chambers <jc:trillian.mit.edu>
M: 4/4
L: 1/8
K: Em
   B,EF \
| "Em"F{A}G GG- GG FE | "B7"E{G}F FF- FF E^D \
| "C"^DE2 E (3DEF (3EDC | "B"B,2 B2 B/A/G G/F/E |
| "Em"F{A}G GG- GG FE | "Am"^GA EA- AA =GF \
| "B"FG ^AB B/=A/G G/F/E | "Em"E4 z :|
|: "D7"DGA \
| "G"BB BB- (3BAB "(D7)"(3cBA | "G"G4 zDGA \
| ^AB BB Bc dc | B8 |
| "Am"c4 zcBA | "Em"B4 zBAG \
| "B"FG ^AB B/=A/G G/F/E | "Em"E4 z :|
|: EGB \
| "Em"e4 e4 | e2 e2 e2 e2 \
| "Em"e2 Be gf e2 | "G"d3 d- dc BA \
| "D7"GA2 G d>d (3cBA | "G"B8 |
| "Em"e2 Be gf e2 | "G"d3 d- dc BA \
| "B"FG ^AB B/=A/G G/F/E | "Em"E4 z :|
